assets/images/chronopost.svg

<svg width="104" height="23" viewBox="0 0 104 23" fill="none" xmlns="http://www.w3.org/2000/svg">
  <path d="M75.8898 20.4777H73.6888V9.28077C74.8153 8.83503 76.0111 8.58542 77.2242 8.58542C79.8758 8.58542 81.6955 10.1366 81.6955 12.7753C81.6955 15.6815 79.9971 17.304 77.1895 17.304H77.0856V15.3428C78.4547 15.3428 79.4772 14.5583 79.4772 12.8645C79.4772 11.4203 78.5587 10.618 77.2069 10.618C76.7563 10.6002 76.323 10.6715 75.8898 10.8319V20.4777ZM102.475 15.325C101.539 15.325 101.054 14.8614 101.054 13.9164V10.6536H103.896V8.8172H101.054V5.71488H98.8699V14.0769C98.8699 16.5374 100.204 17.3397 102.319 17.3397C102.873 17.3397 103.445 17.2862 104 17.197V15.1288C103.497 15.2536 102.995 15.3428 102.475 15.325ZM31.7665 9.20945C31.0733 8.78155 30.2761 8.56759 29.4615 8.58542C27.0006 8.58542 25.1982 10.3149 25.1982 12.9536C25.1982 15.5924 26.862 17.2862 29.4789 17.2862C30.3107 17.304 31.1253 17.0901 31.8358 16.6622V14.5761C31.2466 15.0575 30.536 15.325 29.7908 15.325C28.5603 15.4141 27.4859 14.4691 27.3992 13.2033C27.3992 13.1141 27.3992 13.025 27.3992 12.9358C27.3299 11.7234 28.2137 10.6715 29.4095 10.5823C29.5135 10.5823 29.6175 10.5823 29.7042 10.5823C30.4667 10.5645 31.1946 10.8319 31.7838 11.349V9.20945H31.7665ZM32.9449 17.1079H35.1113V10.8676C35.5965 10.6893 36.1164 10.618 36.6363 10.618C37.5722 10.618 38.0748 11.0994 38.0748 12.0443V17.1079H40.2584V11.9017C40.2584 9.44124 38.8546 8.62108 37.1043 8.62108C36.4284 8.62108 35.7525 8.74588 35.1113 8.97767V5.01953H32.9449V17.1079ZM46.5667 12.9715C46.5667 15.3784 48.4557 17.3219 50.7953 17.3219C53.1349 17.3219 55.0239 15.3784 55.0239 12.9715C55.0239 10.5645 53.1349 8.62108 50.7953 8.62108C48.4557 8.60325 46.5667 10.5645 46.5667 12.9715ZM52.823 12.9715C52.823 14.4691 51.9738 15.3784 50.7953 15.3784C49.6168 15.3784 48.7676 14.4513 48.7676 12.9715C48.7676 11.4916 49.6168 10.5645 50.7953 10.5645C51.9738 10.5645 52.823 11.456 52.823 12.9715ZM56.0464 17.1079H58.23V10.8676C58.7153 10.7071 59.2352 10.618 59.7551 10.618C60.691 10.618 61.1936 11.0994 61.1936 12.0443V17.1079H63.3945V11.9017C63.3945 9.42341 62.0601 8.62108 59.9284 8.62108C58.6113 8.63891 57.3115 8.88852 56.0637 9.35209L56.0464 17.1079ZM64.2784 12.9715C64.2784 15.3784 66.1674 17.3219 68.507 17.3219C70.8466 17.3219 72.7356 15.3784 72.7356 12.9715C72.7356 10.5645 70.8466 8.62108 68.507 8.62108C66.1847 8.60325 64.2784 10.5645 64.2784 12.9715ZM70.552 12.9715C70.552 14.4691 69.7028 15.3784 68.5243 15.3784C67.3459 15.3784 66.4967 14.4513 66.4967 12.9715C66.4967 11.4916 67.3459 10.5645 68.5243 10.5645C69.7028 10.5645 70.5347 11.456 70.552 12.9715ZM45.0069 8.62108C42.9099 8.62108 41.5408 9.42341 41.5408 11.9017V17.1257H43.7418V12.0622C43.7418 11.135 44.2271 10.6358 45.1802 10.6358C45.7001 10.6358 46.2027 10.7071 46.7053 10.8498V8.74589C46.1334 8.65674 45.5615 8.60325 45.0069 8.62108ZM91.9204 16.5374C92.7176 17.0009 93.6361 17.2327 94.5546 17.2149C96.4437 17.2149 97.7608 16.3947 97.7608 14.5761C97.7608 13.0784 97.0502 12.2761 94.9706 11.866C94.208 11.6699 93.9134 11.456 93.9134 11.0281C93.9134 10.6001 94.2254 10.3149 94.9532 10.3149C95.7851 10.3327 96.5823 10.618 97.2582 11.1172V9.12031C96.5303 8.6924 95.7158 8.47845 94.8839 8.49628C93.1509 8.49628 91.7991 9.33426 91.7991 11.1707C91.7991 12.6862 92.5616 13.435 94.3987 13.7738C95.2999 13.9699 95.6291 14.166 95.6291 14.6653C95.6291 15.1645 95.1785 15.3963 94.5026 15.3963C93.5668 15.3606 92.683 15.0397 91.9204 14.4691V16.5374ZM82.6486 12.9536C82.6486 15.3606 84.5377 17.304 86.8773 17.304C89.2169 17.304 91.1059 15.3606 91.1059 12.9536C91.1059 10.5467 89.2169 8.60325 86.8773 8.60325C84.5377 8.60325 82.6486 10.5467 82.6486 12.9536ZM88.9049 12.9536C88.9049 14.4513 88.0557 15.3606 86.8773 15.3606C85.6988 15.3606 84.8496 14.4335 84.8496 12.9536C84.8496 11.4738 85.6988 10.5467 86.8773 10.5467C88.0557 10.5467 88.9049 11.456 88.9049 12.9536Z" fill="#3C3C3B"/>
  <path d="M13.3444 10.2787C13.2405 10.3322 13.1191 10.3322 13.0152 10.2787L12.4952 9.95775C12.4433 9.92209 12.4086 9.88644 12.3913 9.83295C12.3566 9.77946 12.3393 9.72597 12.3393 9.65465V9.03062C12.3393 8.92365 12.3913 8.81667 12.4952 8.74535L18.7515 5.00116L9.965 0.0802326C9.7397 -0.0267442 9.47975 -0.0267442 9.25445 0.0802326L0.485253 4.98333L10.2943 10.8671C10.3983 10.9205 10.4503 11.0275 10.4503 11.1523V19.7283C10.4503 19.8531 10.3809 19.9423 10.2769 20.0136L9.75704 20.3167C9.70504 20.3345 9.65305 20.3523 9.60106 20.3523C9.54907 20.3523 9.47975 20.3345 9.42776 20.3167L8.90784 20.0136C8.80386 19.9601 8.75187 19.8531 8.73454 19.7283V12.0795C8.73454 12.026 8.69988 11.9546 8.64789 11.919L0 6.74845V16.8756C0.0173304 17.1252 0.138643 17.357 0.346609 17.4996L9.25445 22.9198C9.47975 23.0267 9.72237 23.0267 9.94767 22.9198L18.8555 17.5174C19.0635 17.3748 19.1848 17.143 19.2021 16.8934V6.76628L13.3444 10.2787Z" fill="url(#paint0_linear_3286_57323)"/>
  <defs>
    <linearGradient id="paint0_linear_3286_57323" x1="0.0978648" y1="19.5301" x2="10.0408" y2="11.4184" gradientUnits="userSpaceOnUse">
      <stop stop-color="#0067AA"/>
      <stop offset="0.35" stop-color="#0082C1"/>
      <stop offset="0.75" stop-color="#009AD5"/>
      <stop offset="1" stop-color="#00A3DD"/>
    </linearGradient>
  </defs>
</svg>

<svg width="104" height="23" viewBox="0 0 104 23" fill="none" xmlns="http://www.w3.org/2000/svg">
  <path d="M75.89 20.478h-2.201V9.28a9.616 9.616 0 0 1 3.535-.696c2.652 0 4.471 1.552 4.471 4.19 0 2.906-1.698 4.529-4.505 4.529h-.104v-1.961c1.369 0 2.391-.785 2.391-2.479 0-1.444-.918-2.246-2.27-2.246a3.355 3.355 0 0 0-1.317.214v9.646Zm26.585-5.153c-.936 0-1.421-.464-1.421-1.409v-3.262h2.842V8.817h-2.842V5.715H98.87v8.362c0 2.46 1.334 3.263 3.449 3.263a10.7 10.7 0 0 0 1.681-.143v-2.068c-.503.125-1.005.214-1.525.196ZM31.767 9.209a4.201 4.201 0 0 0-2.305-.624c-2.461 0-4.264 1.73-4.264 4.369 0 2.638 1.664 4.332 4.28 4.332a4.376 4.376 0 0 0 2.358-.624v-2.086c-.59.481-1.3.749-2.045.749-1.23.09-2.305-.856-2.392-2.122v-.267c-.07-1.213.815-2.264 2.01-2.354h.295a3.02 3.02 0 0 1 2.08.767v-2.14h-.017Zm1.178 7.899h2.166v-6.24a4.418 4.418 0 0 1 1.525-.25c.936 0 1.439.481 1.439 1.426v5.064h2.183v-5.206c0-2.46-1.403-3.28-3.154-3.28-.676 0-1.352.124-1.993.356V5.02h-2.166v12.088Zm13.622-4.136c0 2.406 1.889 4.35 4.228 4.35 2.34 0 4.229-1.944 4.229-4.35 0-2.407-1.89-4.35-4.229-4.35-2.34-.019-4.228 1.943-4.228 4.35Zm6.256 0c0 1.497-.85 2.406-2.028 2.406s-2.027-.927-2.027-2.406c0-1.48.849-2.407 2.027-2.407 1.179 0 2.028.891 2.028 2.407Zm3.223 4.136h2.184v-6.24a4.885 4.885 0 0 1 1.525-.25c.936 0 1.439.481 1.439 1.426v5.064h2.2v-5.206c0-2.479-1.334-3.28-3.466-3.28a11.522 11.522 0 0 0-3.864.73l-.018 7.756Zm8.232-4.136c0 2.406 1.89 4.35 4.229 4.35 2.34 0 4.229-1.944 4.229-4.35 0-2.407-1.89-4.35-4.229-4.35-2.322-.019-4.229 1.943-4.229 4.35Zm6.274 0c0 1.497-.85 2.406-2.028 2.406s-2.027-.927-2.027-2.406c0-1.48.849-2.407 2.027-2.407 1.179 0 2.01.891 2.028 2.407Zm-25.545-4.35c-2.097 0-3.466.801-3.466 3.28v5.224h2.2v-5.064c0-.927.486-1.426 1.44-1.426.52 0 1.022.071 1.524.214V8.746a9.188 9.188 0 0 0-1.698-.125Zm46.913 7.915a5.061 5.061 0 0 0 2.635.678c1.889 0 3.206-.82 3.206-2.639 0-1.498-.71-2.3-2.79-2.71-.763-.196-1.058-.41-1.058-.838s.312-.713 1.04-.713a4.02 4.02 0 0 1 2.305.802V9.12a4.476 4.476 0 0 0-2.374-.624c-1.733 0-3.085.838-3.085 2.675 0 1.515.763 2.264 2.6 2.603.9.196 1.23.392 1.23.891 0 .5-.45.731-1.126.731a4.57 4.57 0 0 1-2.583-.927v2.068Zm-9.271-3.583c0 2.407 1.889 4.35 4.228 4.35 2.34 0 4.229-1.943 4.229-4.35 0-2.407-1.89-4.35-4.229-4.35-2.34 0-4.228 1.943-4.228 4.35Zm6.256 0c0 1.497-.85 2.407-2.028 2.407s-2.027-.928-2.027-2.407c0-1.48.849-2.407 2.027-2.407 1.179 0 2.028.909 2.028 2.407Z" fill="#3C3C3B"/>
  <path d="M13.344 10.279a.358.358 0 0 1-.329 0l-.52-.321a.238.238 0 0 1-.104-.125.307.307 0 0 1-.052-.178V9.03c0-.107.052-.214.156-.286l6.257-3.744L9.964.081a.827.827 0 0 0-.71 0L.484 4.982l9.81 5.884c.103.053.155.16.155.285v8.576c0 .125-.07.214-.173.286l-.52.303c-.052.017-.104.035-.156.035a.602.602 0 0 1-.173-.035l-.52-.303c-.104-.054-.156-.16-.173-.286V12.08a.214.214 0 0 0-.087-.16L0 6.749v10.127c.017.25.139.481.347.624l8.907 5.42a.79.79 0 0 0 .694 0l8.907-5.403a.818.818 0 0 0 .347-.624V6.766l-5.858 3.513Z" fill="url(#paint0_linear_3286_57323)"/>
  <defs>
    <linearGradient id="paint0_linear_3286_57323" x1=".098" y1="19.53" x2="10.041" y2="11.418" gradientUnits="userSpaceOnUse">
      <stop stop-color="#0067AA"/>
      <stop offset=".35" stop-color="#0082C1"/>
      <stop offset=".75" stop-color="#009AD5"/>
      <stop offset="1" stop-color="#00A3DD"/>
    </linearGradient>
  </defs>
</svg>
